src/Resource_Files/fluent/format-indent-more.svg

<svg clip-rule="evenodd" fill-rule="evenodd" stroke-linejoin="round" stroke-miterlimit="2" viewBox="0 0 16 16" xmlns="http://www.w3.org/2000/svg"><g fill="#1abc9c" fill-rule="nonzero"><path d="m10.5 14c.276 0 .5.224.5.5 0 .245-.177.45-.41.492l-.09.008h-8c-.276 0-.5-.224-.5-.5 0-.245.177-.45.41-.492l.09-.008zm2-5c.276 0 .5.224.5.5s-.224.5-.5.5h-10c-.276 0-.5-.224-.5-.5s.224-.5.5-.5zm-2-5c.276 0 .5.224.5.5s-.224.5-.5.5h-8c-.276 0-.5-.224-.5-.5s.224-.5.5-.5z" transform="translate(3 -2)"/><path d="m2.72 9.22c.266-.267.683-.291.976-.073l.084.073 2 2c.267.266.291.683.073.976l-.073.084-2 2c-.293.293-.767.293-1.06 0-.267-.266-.291-.683-.073-.976l.073-.084 1.469-1.47-1.469-1.47c-.293-.293-.293-.767 0-1.06z" transform="matrix(.839553 0 0 .839553 -2.09888 -2.36474)"/></g></svg>

<?xml version="1.0" encoding="UTF-8" standalone="no"?>
<!DOCTYPE svg PUBLIC "-//W3C//DTD SVG 1.1//EN" "http://www.w3.org/Graphics/SVG/1.1/DTD/svg11.dtd">
<svg width="100%" height="100%" viewBox="0 0 16 16" version="1.1" xmlns="http://www.w3.org/2000/svg" xmlns:xlink="http://www.w3.org/1999/xlink" xml:space="preserve" xmlns:serif="http://www.serif.com/" style="fill-rule:evenodd;clip-rule:evenodd;stroke-linejoin:round;stroke-miterlimit:2;">
    <g id="🎨-Color" transform="matrix(1,0,0,1,3,-2)">
        <path d="M10.5,14C10.776,14 11,14.224 11,14.5C11,14.745 10.823,14.95 10.59,14.992L10.5,15L2.5,15C2.224,15 2,14.776 2,14.5C2,14.255 2.177,14.05 2.41,14.008L2.5,14L10.5,14ZM12.5,9C12.776,9 13,9.224 13,9.5C13,9.776 12.776,10 12.5,10L2.5,10C2.224,10 2,9.776 2,9.5C2,9.224 2.224,9 2.5,9L12.5,9ZM10.5,4C10.776,4 11,4.224 11,4.5C11,4.776 10.776,5 10.5,5L2.5,5C2.224,5 2,4.776 2,4.5C2,4.224 2.224,4 2.5,4L10.5,4Z" style="fill:rgb(26,188,156);fill-rule:nonzero;"/>
    </g>
    <g id="🎨-Color1" serif:id="🎨-Color" transform="matrix(0.839553,0,0,0.839553,-2.09888,-2.36474)">
        <path d="M2.72,9.22C2.986,8.953 3.403,8.929 3.696,9.147L3.78,9.22L5.78,11.22C6.047,11.486 6.071,11.903 5.853,12.196L5.78,12.28L3.78,14.28C3.487,14.573 3.013,14.573 2.72,14.28C2.453,14.014 2.429,13.597 2.647,13.304L2.72,13.22L4.189,11.75L2.72,10.28C2.427,9.987 2.427,9.513 2.72,9.22Z" style="fill:rgb(26,188,156);fill-rule:nonzero;"/>
    </g>
</svg>
